src/assets/metronic/worbby/global/img/icon-task.svg

<?xml version="1.0" encoding="UTF-8"?>
<svg width="40px" height="40px" viewBox="0 0 40 40" version="1.1" xmlns="http://www.w3.org/2000/svg" xmlns:xlink="http://www.w3.org/1999/xlink">
    <!-- Generator: Sketch 41.2 (35397) - http://www.bohemiancoding.com/sketch -->
    <title>icon-general-account</title>
    <desc>Created with Sketch.</desc>
    <defs>
        <linearGradient x1="0%" y1="49.9979293%" x2="99.9874969%" y2="49.9979293%" id="linearGradient-1">
            <stop stop-color="#FFB247" offset="0%"></stop>
            <stop stop-color="#FFCB33" offset="100%"></stop>
        </linearGradient>
    </defs>
    <g id="Desktop" stroke="none" stroke-width="1" fill="none" fill-rule="evenodd">
        <g id="Desktop-About-Worbby" transform="translate(-315.000000, -427.000000)">
            <g id="photo-about-banner" transform="translate(265.000000, 380.000000)">
                <g id="icon-general-account" transform="translate(50.000000, 47.000000)">
                    <circle id="Oval" fill="url(#linearGradient-1)" cx="26.8" cy="13.2" r="13.2"></circle>
                    <path d="M28,37.6 C33.3019336,37.6 37.6,33.3019336 37.6,28 C37.6,22.6980664 33.3019336,18.4 28,18.4 C22.6980664,18.4 18.4,22.6980664 18.4,28 C18.4,33.3019336 22.6980664,37.6 28,37.6 Z M28,40 C21.372583,40 16,34.627417 16,28 C16,21.372583 21.372583,16 28,16 C34.627417,16 40,21.372583 40,28 C40,34.627417 34.627417,40 28,40 Z" id="Oval-2" fill="#1E2225"></path>
                    <path d="M1.2,2.4 L24,2.4 C24.6627417,2.4 25.2,1.8627417 25.2,1.2 C25.2,0.5372583 24.6627417,0 24,0 L1.2,0 C0.5372583,0 0,0.5372583 0,1.2 C0,1.8627417 0.5372583,2.4 1.2,2.4 Z" id="Path-3" fill="#1E2225"></path>
                    <path d="M1.19999998,7.9 L23.9999998,7.9 C24.6627415,7.9 25.1999998,7.3627417 25.1999998,6.7 C25.1999998,6.0372583 24.6627415,5.5 23.9999998,5.5 L1.19999998,5.5 C0.537258293,5.5 0,6.0372583 0,6.7 C0,7.3627417 0.537258293,7.9 1.19999998,7.9 Z" id="Path-3" fill="#1E2225"></path>
                    <path d="M1.2,13.9 L11,13.9 C11.6627417,13.9 12.2,13.3627417 12.2,12.7 C12.2,12.0372583 11.6627417,11.5 11,11.5 L1.2,11.5 C0.5372583,11.5 0,12.0372583 0,12.7 C0,13.3627417 0.5372583,13.9 1.2,13.9 Z" id="Path-3" fill="#1E2225"></path>
                    <path d="M1.2,18.9 L6,18.9 C6.6627417,18.9 7.2,18.3627417 7.2,17.7 C7.2,17.0372583 6.6627417,16.5 6,16.5 L1.2,16.5 C0.5372583,16.5 0,17.0372583 0,17.7 C0,18.3627417 0.5372583,18.9 1.2,18.9 Z" id="Path-3" fill="#1E2225"></path>
                    <path d="M24.96,28.08 C24.562355,27.5498066 23.8101934,27.442355 23.28,27.84 C22.7498066,28.237645 22.642355,28.9898066 23.04,29.52 L25.44,32.72 C25.9298732,33.3731643 26.9148719,33.3570211 27.3830783,32.6881548 L32.9830783,24.6881548 C33.3631357,24.1452157 33.231094,23.3969791 32.6881548,23.0169217 C32.1452157,22.6368643 31.3969791,22.768906 31.0169217,23.3118452 L26.3664897,29.9553195 L24.96,28.08 Z" id="Path-2" fill="#1E2225"></path>
                </g>
            </g>
        </g>
    </g>
</svg>

<svg xmlns="http://www.w3.org/2000/svg" width="40" height="40"><defs><linearGradient id="a" x1="0%" x2="99.9875%" y1="49.9979%" y2="49.9979%"><stop stop-color="#FFB247" offset="0%"/><stop stop-color="#FFCB33" offset="100%"/></linearGradient></defs><g fill="none" fill-rule="evenodd"><circle cx="26.8" cy="13.2" r="13.2" fill="url(#a)"/><path fill="#1E2225" d="M28 37.6c5.302 0 9.6-4.298 9.6-9.6s-4.298-9.6-9.6-9.6-9.6 4.298-9.6 9.6 4.298 9.6 9.6 9.6zm0 2.4c-6.6274 0-12-5.3726-12-12s5.3726-12 12-12 12 5.3726 12 12-5.3726 12-12 12zM1.2 2.4H24c.6627 0 1.2-.5373 1.2-1.2S24.6627 0 24 0H1.2C.5373 0 0 .5373 0 1.2s.5373 1.2 1.2 1.2zM1.2 7.9H24c.6627 0 1.2-.5373 1.2-1.2s-.5373-1.2-1.2-1.2H1.2C.5373 5.5 0 6.0373 0 6.7s.5373 1.2 1.2 1.2zM1.2 13.9H11c.6627 0 1.2-.5373 1.2-1.2s-.5373-1.2-1.2-1.2H1.2c-.6627 0-1.2.5373-1.2 1.2s.5373 1.2 1.2 1.2zM1.2 18.9H6c.6627 0 1.2-.5373 1.2-1.2s-.5373-1.2-1.2-1.2H1.2c-.6627 0-1.2.5373-1.2 1.2s.5373 1.2 1.2 1.2z"/><path fill="#1E2225" d="M24.96 28.08c-.3976-.5302-1.1498-.6376-1.68-.24-.5302.3976-.6376 1.1498-.24 1.68l2.4 3.2c.49.6532 1.475.637 1.943-.0318l5.6-8c.38-.543.248-1.2912-.2948-1.6713-.543-.38-1.2912-.248-1.6713.2948l-4.6505 6.6435L24.96 28.08z"/></g></svg>
